icons/clipse.svg

<!--
  - The MIT License (MIT)
  -
  - Copyright (c) 2015-2024 Elior "Mallowigi" Boukhobza
  -
  - Permission is hereby granted, free of charge, to any person obtaining a copy
  - of this software and associated documentation files (the "Software"), to deal
  - in the Software without restriction, including without limitation the rights
  - to use, copy, modify, merge, publish, distribute, sublicense, and/or sell
  - copies of the Software, and to permit persons to whom the Software is
  - furnished to do so, subject to the following conditions:
  -
  - The above copyright notice and this permission notice shall be included in all
  - copies or substantial portions of the Software.
  -
  - THE SOFTWARE IS PROVIDED "AS IS", WITHOUT WARRANTY OF ANY KIND, EXPRESS OR
  - IMPLIED, INCLUDING BUT NOT LIMITED TO THE WARRANTIES OF MERCHANTABILITY,
  - FITNESS FOR A PARTICULAR PURPOSE AND NONINFRINGEMENT. IN NO EVENT SHALL THE
  - AUTHORS OR COPYRIGHT HOLDERS BE LIABLE FOR ANY CLAIM, DAMAGES OR OTHER
  - LIABILITY, WHETHER IN AN ACTION OF CONTRACT, TORT OR OTHERWISE, ARISING FROM,
  - OUT OF OR IN CONNECTION WITH THE SOFTWARE OR THE USE OR OTHER DEALINGS IN THE
  - SOFTWARE.
  -
  -->

<svg  version="1.1" xmlns="http://www.w3.org/2000/svg" viewBox="0 0 512 512" width="16px" height="16px">
  <path fill="#7986CB" data-iconColor="EclipseLang"
        d="M404.1605225,238.2064209l6.0133362-37.6802063C460.5036926,196.5661469,462.355896,242.0771484,404.1605225,238.2064209z M512,255.999939c0,196.3384094-214.0074158,319.7160645-384.2888794,221.5469971c-170.2814789-98.16922-170.2814789-344.9246521-0.0001144-443.0938721C297.9924927-63.7160187,512,59.6616402,512,255.999939z M291.8839111,136.2375641h54.3310242l6.8616943-43.0413208h-54.3310242L291.8839111,136.2375641z M171.0325317,280.1794434l-52.390625-4.7628479c-2.4164352,12.2863464-9.7104111,30.1898193-26.8504562,31.326416c-23.9215317,0-26.1736145-27.2988586-21.6508102-54.1839294c5.9678192-35.4753418,15.8628464-53.3490753,31.3988419-53.0444336c27.2157364,0.5336761,23.3099518,27.6144562,22.9236069,33.7297363l56.6241913-3.7925873c0,0,2.1167755-79.4550934-83.0841446-75.7506866c-80.9672394,8.4672394-89.9635391,88.3760376-89.9635391,108.4856262c0,20.1094971,0.5291672,93.1387939,79.9087982,93.1387939C157.8025513,355.325531,171.0325317,280.1794434,171.0325317,280.1794434z M319.5546265,302.5466919H247.0625l22.744812-142.6716309H211.02211l-30.5884247,191.8730164h131.2773132L319.5546265,302.5466919z M322.0303345,287.94104l22.3848267-140.4138947H290.084137L267.6993103,287.94104H322.0303345z M439.8650513,157.3925323H361.481842l-30.7431946,194.355545h54.9602051l11.4216309-71.568634h42.0390015C522.8460693,280.6662598,523.5517578,157.8793488,439.8650513,157.3925323z"/>
</svg>

<svg xmlns="http://www.w3.org/2000/svg" viewBox="0 0 512 512"><path fill="#7986cb" d="m404.16 238.206 6.014-37.68c50.33-3.96 52.182 41.551-6.013 37.68M512 256c0 196.338-214.007 319.716-384.289 221.547s-170.281-344.925 0-443.094S512 59.662 512 256M291.884 136.238h54.33l6.863-43.042h-54.331zM171.033 280.179l-52.391-4.762c-2.417 12.286-9.71 30.19-26.85 31.326-23.922 0-26.174-27.299-21.651-54.184 5.967-35.475 15.862-53.349 31.398-53.044 27.216.533 23.31 27.614 22.924 33.73l56.624-3.793s2.117-79.455-83.084-75.75C17.036 162.167 8.04 242.076 8.04 262.186s.529 93.139 79.908 93.139c69.855 0 83.085-75.147 83.085-75.147m148.522 22.368h-72.492l22.744-142.672h-58.785l-30.588 191.873H311.71zm2.475-14.606 22.385-140.414h-54.33L267.699 287.94zm117.835-130.548h-78.383l-30.743 194.355h54.96l11.421-71.569h42.04c83.686.487 84.392-122.3.705-122.786" data-iconColor="EclipseLang"/></svg>
